X: 69
T: Old Jaw Bone
B: canberra pickers and fiddlers
B: old time tunes update
B: tunes
M:2/4
L:1/8
Q: 1/4=100
K:G
V:1 
D| Bc dd/d/ | Bc d2 | gg/g/ dd | AB c2 |\
Bc dd/d/ | de e2 |
gg/g/ d/d/d/c/ | BG Gz |\
Bd Ac/c/ | Bd D2 | Bd BG | DD G|]
% abcbook-tune_id 67a7d9ec7f7acb047ff97e1c
% abcbook-tune_composer_id 
% abcbook-link-0 https://www.youtube.com/watch?v=BuL8WiFN180
% abcbook-link-title-0 Pope&#39;s Arkansas Mountaineers-Jaw Bone
% abcbook-boost 0
% abcbook-difficulty 0
% abcbook-tags old time tunes
% abcbook-tablature 
% abcbook-transpose 2
% abcbook-tuning AEAE
% abcbook-lastupdated 1739274295305
% abcbook-src-url 
% abcbook-soundfonts 
% abcbook-repeats 1
%%MIDI transpose 2


